src/svgs/rollup.svg

<?xml version="1.0" encoding="UTF-8" standalone="no"?>
<svg
   viewBox="0 0 32 32"
   version="1.1"
   id="svg959"
   xmlns="http://www.w3.org/2000/svg"
   xmlns:svg="http://www.w3.org/2000/svg">
  <defs
     id="defs963" />
  <path
     id="path955"
     d="M 9.5996094 7 C 9.3996094 7 9.3007812 7.1003906 9.3007812 7.4003906 L 9.3007812 21.800781 C 9.8007812 20.500781 10.499219 19.200391 11.199219 17.900391 C 11.699219 16.900391 12.199219 15.999609 12.699219 15.099609 C 13.499219 13.699609 14.199609 12.3 15.099609 11 C 15.499609 10.4 15.900781 9.8007812 16.300781 9.3007812 C 16.700781 8.9007812 17.099609 8.6003906 17.599609 8.4003906 C 18.099609 8.3003906 18.700781 8.2007813 19.300781 8.3007812 C 20.100781 8.4007812 20.800391 8.7007813 21.400391 9.3007812 L 21.5 9.4003906 L 21.599609 9.5 L 21.599609 9.4003906 C 20.399609 7.9003906 18.800781 7 16.800781 7 L 9.5996094 7 z M 19.074219 8.8867188 C 18.849219 8.8931641 18.625391 8.925 18.400391 9 C 18.000391 9.1 17.7 9.2 17.5 9.5 C 17 10.1 16.899609 10.700391 17.099609 11.400391 C 17.299609 12.200391 17.800391 12.699219 18.400391 13.199219 C 18.600391 13.299219 18.799609 13.4 19.099609 13.5 C 19.299609 13.5 19.499609 13.499219 19.599609 13.199219 C 19.699609 13.099219 19.699219 12.900781 19.699219 12.800781 C 19.699219 12.400781 19.6 12.100781 19.5 11.800781 C 19.4 11.600781 19.300781 11.399219 19.300781 11.199219 C 19.500781 11.699219 19.8 12.199609 20 12.599609 C 20.1 12.899609 20.100391 13.299609 19.900391 13.599609 L 19.699219 13.800781 C 19.199219 14.200781 18.699219 14.699609 18.199219 15.099609 C 17.499219 15.699609 16.900391 16.300391 16.400391 16.900391 C 15.600391 17.900391 14.899219 18.900391 14.199219 19.900391 C 13.699219 20.600391 13.300781 21.299609 12.800781 22.099609 C 12.400781 22.699609 12.099219 23.300391 11.699219 23.900391 C 11.499219 24.300391 11.2 24.7 11 25 L 22.599609 25 C 22.899609 25 23.000391 24.8 22.900391 24.5 C 22.500391 24.3 22.400781 24.100391 22.300781 23.900391 L 19.599609 18.5 C 19.499609 18.3 19.499219 18.199609 19.699219 18.099609 C 20.299219 17.799609 20.799219 17.400391 21.199219 16.900391 C 22.299219 15.600391 22.799609 14.000781 22.599609 12.300781 C 22.499609 11.500781 22.300391 10.799609 21.900391 10.099609 C 21.800391 9.9996094 21.799219 9.9007813 21.699219 9.8007812 C 21.299219 9.4007812 20.799219 9.2 20.199219 9 C 19.824219 8.9375 19.449219 8.8759766 19.074219 8.8867188 z " />
</svg>

<svg xmlns="http://www.w3.org/2000/svg" viewBox="0 0 32 32"><path d="M22.3 23.9l-2.7-5.4c-.1-.2-.1-.3.1-.4.6-.3 1.1-.7 1.5-1.2 1.1-1.3 1.6-2.9 1.4-4.6-.1-.8-.3-1.5-.7-2.2-.1-.1-.1-.2-.2-.3-.4-.4-.9-.6-1.5-.8-.6-.1-1.2-.2-1.8 0-.4.1-.7.2-.9.5-.5.6-.6 1.2-.4 1.9.2.8.7 1.3 1.3 1.8.2.1.4.2.7.3.2 0 .4 0 .5-.3.1-.1.1-.3.1-.4 0-.4-.1-.7-.2-1-.1-.2-.2-.4-.2-.6.2.5.5 1 .7 1.4.1.3.1.7-.1 1l-.2.2c-.5.4-1 .9-1.5 1.3-.7.6-1.3 1.2-1.8 1.8-.8 1-1.5 2-2.2 3-.5.7-.9 1.4-1.4 2.2-.4.6-.7 1.2-1.1 1.8-.2.4-.5.8-.7 1.1h11.6c.3 0 .4-.2.3-.5-.4-.2-.5-.4-.6-.6z"/><path d="M12.7 15.1c.8-1.4 1.5-2.8 2.4-4.1.4-.6.8-1.2 1.2-1.7.4-.4.8-.7 1.3-.9.5-.1 1.1-.2 1.7-.1.8.1 1.5.4 2.1 1l.1.1.1.1v-.1C20.4 7.9 18.8 7 16.8 7H9.6c-.2 0-.3.1-.3.4v14.4c.5-1.3 1.2-2.6 1.9-3.9.5-1 1-1.9 1.5-2.8z"/></svg>
